images/diaz.svg

<svg width="150" height="150" viewBox="0 0 150 150" fill="none" xmlns="http://www.w3.org/2000/svg">
<rect width="150" height="150" rx="75" fill="#F2F6FF"/>
<g filter="url(#filter0_b_34_364)">
<path d="M76.1403 47.3411L55.6853 53.1889C48.2312 55.3199 45.1394 61.033 47.1365 68.9854L52.6117 90.787C54.6088 98.7394 59.9637 102.038 67.4178 99.9066L87.8729 94.0588C95.327 91.9277 98.3994 86.2202 96.4022 78.2678L90.927 56.4662C88.9299 48.5139 83.5945 45.21 76.1403 47.3411Z" fill="url(#paint0_linear_34_364)"/>
</g>
<g opacity="0.5" filter="url(#filter1_f_34_364)">
<path d="M86.2195 75.9124L82.5049 60.8997C81.1575 55.4542 77.7853 53.0126 73.3514 54.2615L58.334 58.4913C53.8273 59.7607 52.0822 63.6437 53.4296 69.0892L57.1442 84.1019C58.5133 89.6351 61.8051 92.0036 66.3118 90.7343L81.3292 86.5044C85.7632 85.2555 87.5885 81.4456 86.2195 75.9124Z" fill="#11B5E4"/>
</g>
<g filter="url(#filter2_b_34_364)">
<mask id="path-4-outside-1_34_364" maskUnits="userSpaceOnUse" x="59.6602" y="56.626" width="48" height="51" fill="black">
<rect fill="white" x="59.6602" y="56.626" width="48" height="51"/>
<path d="M93.9231 57.626H72.7484C65.0321 57.626 60.6602 62.2906 60.6602 70.5235V93.0942C60.6602 101.327 65.0321 105.992 72.7484 105.992H93.9231C101.639 105.992 105.991 101.327 105.991 93.0942V70.5235C105.991 62.2906 101.639 57.626 93.9231 57.626Z"/>
</mask>
<path d="M93.9231 57.626H72.7484C65.0321 57.626 60.6602 62.2906 60.6602 70.5235V93.0942C60.6602 101.327 65.0321 105.992 72.7484 105.992H93.9231C101.639 105.992 105.991 101.327 105.991 93.0942V70.5235C105.991 62.2906 101.639 57.626 93.9231 57.626Z" fill="#00ACDD"/>
<path d="M93.9231 58.626C94.4754 58.626 94.9231 58.1783 94.9231 57.626C94.9231 57.0737 94.4754 56.626 93.9231 56.626V58.626ZM93.9231 56.626C93.3708 56.626 92.9231 57.0737 92.9231 57.626C92.9231 58.1783 93.3708 58.626 93.9231 58.626V56.626ZM93.9231 56.626H72.7484V58.626H93.9231V56.626ZM72.7484 56.626C68.6858 56.626 65.3718 57.8595 63.081 60.3035C60.7993 62.7381 59.6602 66.2381 59.6602 70.5235H61.6602C61.6602 66.576 62.707 63.6272 64.5403 61.6712C66.3646 59.7248 69.0947 58.626 72.7484 58.626V56.626ZM59.6602 70.5235V93.0942H61.6602V70.5235H59.6602ZM59.6602 93.0942C59.6602 97.3796 60.7993 100.88 63.081 103.314C65.3718 105.758 68.6858 106.992 72.7484 106.992V104.992C69.0947 104.992 66.3646 103.893 64.5403 101.946C62.707 99.9904 61.6602 97.0417 61.6602 93.0942H59.6602ZM72.7484 106.992H93.9231V104.992H72.7484V106.992ZM93.9231 106.992C97.9858 106.992 101.295 105.758 103.581 103.313C105.858 100.878 106.991 97.3784 106.991 93.0942H104.991C104.991 97.0428 103.949 99.9917 102.12 101.947C100.301 103.893 97.5767 104.992 93.9231 104.992V106.992ZM106.991 93.0942V70.5235H104.991V93.0942H106.991ZM106.991 70.5235C106.991 66.2392 105.858 62.7393 103.581 60.3044C101.295 57.8596 97.9858 56.626 93.9231 56.626V58.626C97.5767 58.626 100.301 59.7247 102.12 61.6703C103.949 63.626 104.991 66.5748 104.991 70.5235H106.991Z" fill="url(#paint1_linear_34_364)" mask="url(#path-4-outside-1_34_364)"/>
</g>
<g filter="url(#filter3_bd_34_364)">
<mask id="path-6-inside-2_34_364" fill="white">
<path fill-rule="evenodd" clip-rule="evenodd" d="M83.4047 67.5144C82.3772 67.5144 81.531 68.4172 81.531 69.535V94.0833C81.531 95.1796 82.3772 96.0824 83.4047 96.0824C84.4524 96.0824 85.2985 95.1796 85.2985 94.0833V69.535C85.2985 68.4172 84.4524 67.5144 83.4047 67.5144ZM72.8278 75.4471C71.8003 75.4471 70.9541 76.3499 70.9541 77.4677V94.084C70.9541 95.1803 71.8003 96.0831 72.8278 96.0831C73.8754 96.0831 74.7216 95.1803 74.7216 94.084V77.4677C74.7216 76.3499 73.8754 75.4471 72.8278 75.4471ZM91.9478 86.2378C91.9478 85.1201 92.794 84.2172 93.8416 84.2172C94.8691 84.2172 95.7153 85.1201 95.7153 86.2378V94.0838C95.7153 95.1801 94.8691 96.083 93.8215 96.083C92.794 96.083 91.9478 95.1801 91.9478 94.0838V86.2378Z"/>
</mask>
<path fill-rule="evenodd" clip-rule="evenodd" d="M83.4047 67.5144C82.3772 67.5144 81.531 68.4172 81.531 69.535V94.0833C81.531 95.1796 82.3772 96.0824 83.4047 96.0824C84.4524 96.0824 85.2985 95.1796 85.2985 94.0833V69.535C85.2985 68.4172 84.4524 67.5144 83.4047 67.5144ZM72.8278 75.4471C71.8003 75.4471 70.9541 76.3499 70.9541 77.4677V94.084C70.9541 95.1803 71.8003 96.0831 72.8278 96.0831C73.8754 96.0831 74.7216 95.1803 74.7216 94.084V77.4677C74.7216 76.3499 73.8754 75.4471 72.8278 75.4471ZM91.9478 86.2378C91.9478 85.1201 92.794 84.2172 93.8416 84.2172C94.8691 84.2172 95.7153 85.1201 95.7153 86.2378V94.0838C95.7153 95.1801 94.8691 96.083 93.8215 96.083C92.794 96.083 91.9478 95.1801 91.9478 94.0838V86.2378Z" fill="url(#paint2_linear_34_364)"/>
<path d="M81.931 69.535C81.931 68.6105 82.6248 67.9144 83.4047 67.9144V67.1144C82.1296 67.1144 81.131 68.224 81.131 69.535H81.931ZM81.931 94.0833V69.535H81.131V94.0833H81.931ZM83.4047 95.6824C82.6221 95.6824 81.931 94.9835 81.931 94.0833H81.131C81.131 95.3757 82.1323 96.4824 83.4047 96.4824V95.6824ZM84.8985 94.0833C84.8985 94.9806 84.2101 95.6824 83.4047 95.6824V96.4824C84.6946 96.4824 85.6985 95.3786 85.6985 94.0833H84.8985ZM84.8985 69.535V94.0833H85.6985V69.535H84.8985ZM83.4047 67.9144C84.2074 67.9144 84.8985 68.6133 84.8985 69.535H85.6985C85.6985 68.2211 84.6973 67.1144 83.4047 67.1144V67.9144ZM71.3541 77.4677C71.3541 76.5432 72.0479 75.8471 72.8278 75.8471V75.0471C71.5527 75.0471 70.5541 76.1567 70.5541 77.4677H71.3541ZM71.3541 94.084V77.4677H70.5541V94.084H71.3541ZM72.8278 95.6831C72.0452 95.6831 71.3541 94.9842 71.3541 94.084H70.5541C70.5541 95.3764 71.5553 96.4831 72.8278 96.4831V95.6831ZM74.3216 94.084C74.3216 94.9813 73.6332 95.6831 72.8278 95.6831V96.4831C74.1177 96.4831 75.1216 95.3793 75.1216 94.084H74.3216ZM74.3216 77.4677V94.084H75.1216V77.4677H74.3216ZM72.8278 75.8471C73.6305 75.8471 74.3216 76.546 74.3216 77.4677H75.1216C75.1216 76.1538 74.1204 75.0471 72.8278 75.0471V75.8471ZM93.8416 83.8172C92.549 83.8172 91.5478 84.924 91.5478 86.2378H92.3478C92.3478 85.3162 93.0389 84.6172 93.8416 84.6172V83.8172ZM96.1153 86.2378C96.1153 84.9268 95.1167 83.8172 93.8416 83.8172V84.6172C94.6215 84.6172 95.3153 85.3133 95.3153 86.2378H96.1153ZM96.1153 94.0838V86.2378H95.3153V94.0838H96.1153ZM93.8215 96.483C95.1114 96.483 96.1153 95.3791 96.1153 94.0838H95.3153C95.3153 94.9812 94.6269 95.683 93.8215 95.683V96.483ZM91.5478 94.0838C91.5478 95.3762 92.549 96.483 93.8215 96.483V95.683C93.0389 95.683 92.3478 94.984 92.3478 94.0838H91.5478ZM91.5478 86.2378V94.0838H92.3478V86.2378H91.5478Z" fill="url(#paint3_linear_34_364)" mask="url(#path-6-inside-2_34_364)"/>
</g>
<defs>
<filter id="filter0_b_34_364" x="33.543" y="33.7083" width="76.4551" height="79.8315" filterUnits="userSpaceOnUse" color-interpolation-filters="sRGB">
<feFlood flood-opacity="0" result="BackgroundImageFix"/>
<feGaussianBlur in="BackgroundImage" stdDeviation="6.5"/>
<feComposite in2="SourceAlpha" operator="in" result="effect1_backgroundBlur_34_364"/>
<feBlend mode="normal" in="SourceGraphic" in2="effect1_backgroundBlur_34_364" result="shape"/>
</filter>
<filter id="filter1_f_34_364" x="39.9863" y="40.9412" width="59.6787" height="63.1279" filterUnits="userSpaceOnUse" color-interpolation-filters="sRGB">
<feFlood flood-opacity="0" result="BackgroundImageFix"/>
<feBlend mode="normal" in="SourceGraphic" in2="BackgroundImageFix" result="shape"/>
<feGaussianBlur stdDeviation="6.5" result="effect1_foregroundBlur_34_364"/>
</filter>
<filter id="filter2_b_34_364" x="44.6602" y="41.626" width="77.3311" height="80.3657" filterUnits="userSpaceOnUse" color-interpolation-filters="sRGB">
<feFlood flood-opacity="0" result="BackgroundImageFix"/>
<feGaussianBlur in="BackgroundImage" stdDeviation="7.5"/>
<feComposite in2="SourceAlpha" operator="in" result="effect1_backgroundBlur_34_364"/>
<feBlend mode="normal" in="SourceGraphic" in2="effect1_backgroundBlur_34_364" result="shape"/>
</filter>
<filter id="filter3_bd_34_364" x="55.9541" y="52.5144" width="54.7607" height="58.5688" filterUnits="userSpaceOnUse" color-interpolation-filters="sRGB">
<feFlood flood-opacity="0" result="BackgroundImageFix"/>
<feGaussianBlur in="BackgroundImage" stdDeviation="7.5"/>
<feComposite in2="SourceAlpha" operator="in" result="effect1_backgroundBlur_34_364"/>
<feColorMatrix in="SourceAlpha" type="matrix" values="0 0 0 0 0 0 0 0 0 0 0 0 0 0 0 0 0 0 127 0" result="hardAlpha"/>
<feOffset dx="5" dy="5"/>
<feGaussianBlur stdDeviation="5"/>
<feColorMatrix type="matrix" values="0 0 0 0 1 0 0 0 0 0.447059 0 0 0 0 0.368627 0 0 0 0.5 0"/>
<feBlend mode="normal" in2="effect1_backgroundBlur_34_364" result="effect2_dropShadow_34_364"/>
<feBlend mode="normal" in="SourceGraphic" in2="effect2_dropShadow_34_364" result="shape"/>
</filter>
<linearGradient id="paint0_linear_34_364" x1="75.7789" y1="75.8334" x2="40.4732" y2="104.53" gradientUnits="userSpaceOnUse">
<stop stop-color="#11B5E4"/>
<stop offset="1" stop-color="#035B81"/>
</linearGradient>
<linearGradient id="paint1_linear_34_364" x1="67.8761" y1="63.2606" x2="99.0892" y2="99.4933" gradientUnits="userSpaceOnUse">
<stop stop-color="white" stop-opacity="0.25"/>
<stop offset="1" stop-color="white" stop-opacity="0"/>
</linearGradient>
<linearGradient id="paint2_linear_34_364" x1="64.5447" y1="88.7187" x2="77.4079" y2="113.486" gradientUnits="userSpaceOnUse">
<stop stop-color="white"/>
<stop offset="1" stop-color="white" stop-opacity="0.2"/>
</linearGradient>
<linearGradient id="paint3_linear_34_364" x1="74.8957" y1="70.8427" x2="93.4913" y2="90.8043" gradientUnits="userSpaceOnUse">
<stop stop-color="white" stop-opacity="0.25"/>
<stop offset="1" stop-color="white" stop-opacity="0"/>
</linearGradient>
</defs>
</svg>

<svg width="150" height="150" fill="none" xmlns="http://www.w3.org/2000/svg"><rect width="150" height="150" rx="75" fill="#F2F6FF"/><g filter="url(#a)"><path d="M76.14 47.341 55.685 53.19c-7.454 2.13-10.546 7.844-8.549 15.796l5.476 21.802c1.997 7.952 7.352 11.251 14.806 9.12l20.455-5.848c7.454-2.131 10.526-7.839 8.53-15.791l-5.476-21.802c-1.997-7.952-7.333-11.256-14.787-9.125Z" fill="url(#b)"/></g><g opacity=".5" filter="url(#c)"><path d="M86.22 75.912 82.504 60.9c-1.347-5.446-4.72-7.887-9.154-6.639l-15.017 4.23c-4.507 1.27-6.252 5.153-4.904 10.598l3.714 15.013c1.37 5.533 4.661 7.902 9.168 6.632l15.017-4.23c4.434-1.249 6.26-5.058 4.89-10.592Z" fill="#11B5E4"/></g><g filter="url(#d)"><mask id="f" maskUnits="userSpaceOnUse" x="59.66" y="56.626" width="48" height="51" fill="#000"><path fill="#fff" d="M59.66 56.626h48v51h-48z"/><path d="M93.923 57.626H72.748c-7.716 0-12.088 4.665-12.088 12.898v22.57c0 8.233 4.372 12.898 12.088 12.898h21.175c7.716 0 12.068-4.665 12.068-12.898v-22.57c0-8.233-4.352-12.898-12.068-12.898Z"/></mask><path d="M93.923 57.626H72.748c-7.716 0-12.088 4.665-12.088 12.898v22.57c0 8.233 4.372 12.898 12.088 12.898h21.175c7.716 0 12.068-4.665 12.068-12.898v-22.57c0-8.233-4.352-12.898-12.068-12.898Z" fill="#00ACDD"/><path d="M93.923 58.626a1 1 0 1 0 0-2v2Zm0-2a1 1 0 1 0 0 2v-2Zm0 0H72.748v2h21.175v-2Zm-21.175 0c-4.062 0-7.376 1.233-9.667 3.678-2.282 2.434-3.42 5.934-3.42 10.22h2c0-3.948 1.046-6.897 2.88-8.853 1.824-1.946 4.554-3.045 8.207-3.045v-2ZM59.66 70.524v22.57h2v-22.57h-2Zm0 22.57c0 4.286 1.14 7.786 3.421 10.22 2.29 2.444 5.605 3.678 9.667 3.678v-2c-3.653 0-6.383-1.099-8.208-3.046-1.833-1.956-2.88-4.904-2.88-8.852h-2Zm13.088 13.898h21.175v-2H72.748v2Zm21.175 0c4.063 0 7.372-1.234 9.658-3.679 2.277-2.435 3.41-5.935 3.41-10.219h-2c0 3.949-1.042 6.898-2.871 8.853-1.819 1.946-4.543 3.045-8.197 3.045v2Zm13.068-13.898v-22.57h-2v22.57h2Zm0-22.57c0-4.285-1.133-7.785-3.41-10.22-2.286-2.444-5.595-3.678-9.658-3.678v2c3.654 0 6.378 1.099 8.197 3.044 1.829 1.956 2.871 4.905 2.871 8.853h2Z" fill="url(#e)" mask="url(#f)"/></g><g filter="url(#g)"><mask id="j" fill="#fff"><path fill-rule="evenodd" clip-rule="evenodd" d="M83.405 67.514c-1.028 0-1.874.903-1.874 2.021v24.548c0 1.097.846 2 1.874 2 1.047 0 1.894-.903 1.894-2V69.535c0-1.118-.847-2.02-1.894-2.02Zm-10.577 7.933c-1.028 0-1.874.903-1.874 2.02v16.617c0 1.096.846 2 1.874 2 1.047 0 1.894-.904 1.894-2V77.468c0-1.118-.847-2.02-1.894-2.02Zm19.12 10.79c0-1.117.846-2.02 1.894-2.02 1.027 0 1.873.903 1.873 2.02v7.847c0 1.096-.846 1.999-1.894 1.999-1.027 0-1.873-.903-1.873-2v-7.845Z"/></mask><path fill-rule="evenodd" clip-rule="evenodd" d="M83.405 67.514c-1.028 0-1.874.903-1.874 2.021v24.548c0 1.097.846 2 1.874 2 1.047 0 1.894-.903 1.894-2V69.535c0-1.118-.847-2.02-1.894-2.02Zm-10.577 7.933c-1.028 0-1.874.903-1.874 2.02v16.617c0 1.096.846 2 1.874 2 1.047 0 1.894-.904 1.894-2V77.468c0-1.118-.847-2.02-1.894-2.02Zm19.12 10.79c0-1.117.846-2.02 1.894-2.02 1.027 0 1.873.903 1.873 2.02v7.847c0 1.096-.846 1.999-1.894 1.999-1.027 0-1.873-.903-1.873-2v-7.845Z" fill="url(#h)"/><path d="M81.931 69.535c0-.924.694-1.62 1.474-1.62v-.8c-1.275 0-2.274 1.109-2.274 2.42h.8Zm0 24.548V69.535h-.8v24.548h.8Zm1.474 1.6c-.783 0-1.474-.7-1.474-1.6h-.8c0 1.293 1.001 2.4 2.274 2.4v-.8Zm1.493-1.6c0 .898-.688 1.6-1.493 1.6v.8c1.29 0 2.293-1.104 2.293-2.4h-.8Zm0-24.548v24.548h.8V69.535h-.8Zm-1.493-1.62c.802 0 1.493.698 1.493 1.62h.8c0-1.314-1-2.42-2.293-2.42v.8Zm-12.05 9.553c0-.925.693-1.62 1.473-1.62v-.8c-1.275 0-2.274 1.109-2.274 2.42h.8Zm0 16.616V77.468h-.8v16.616h.8Zm1.473 1.6c-.783 0-1.474-.7-1.474-1.6h-.8c0 1.292 1.001 2.4 2.274 2.4v-.8Zm1.494-1.6c0 .897-.689 1.6-1.494 1.6v.8c1.29 0 2.294-1.105 2.294-2.4h-.8Zm0-16.616v16.616h.8V77.468h-.8Zm-1.494-1.62c.802 0 1.494.698 1.494 1.62h.8c0-1.314-1.002-2.42-2.294-2.42v.8Zm21.014 7.97c-1.293 0-2.294 1.106-2.294 2.42h.8c0-.922.69-1.62 1.494-1.62v-.8Zm2.273 2.42c0-1.311-.998-2.42-2.273-2.42v.8c.78 0 1.473.695 1.473 1.62h.8Zm0 7.846v-7.846h-.8v7.846h.8Zm-2.293 2.399c1.29 0 2.293-1.104 2.293-2.4h-.8c0 .898-.688 1.6-1.493 1.6v.8Zm-2.274-2.4c0 1.293 1.001 2.4 2.273 2.4v-.8c-.782 0-1.473-.699-1.473-1.6h-.8Zm0-7.845v7.846h.8v-7.846h-.8Z" fill="url(#i)" mask="url(#j)"/></g><defs><linearGradient id="b" x1="75.779" y1="75.833" x2="40.473" y2="104.53" gradientUnits="userSpaceOnUse"><stop stop-color="#11B5E4"/><stop offset="1" stop-color="#035B81"/></linearGradient><linearGradient id="e" x1="67.876" y1="63.261" x2="99.089" y2="99.493" gradientUnits="userSpaceOnUse"><stop stop-color="#fff" stop-opacity=".25"/><stop offset="1" stop-color="#fff" stop-opacity="0"/></linearGradient><linearGradient id="h" x1="64.545" y1="88.719" x2="77.408" y2="113.486" gradientUnits="userSpaceOnUse"><stop stop-color="#fff"/><stop offset="1" stop-color="#fff" stop-opacity=".2"/></linearGradient><linearGradient id="i" x1="74.896" y1="70.843" x2="93.491" y2="90.804" gradientUnits="userSpaceOnUse"><stop stop-color="#fff" stop-opacity=".25"/><stop offset="1" stop-color="#fff" stop-opacity="0"/></linearGradient><filter id="a" x="33.543" y="33.708" width="76.455" height="79.832" filterUnits="userSpaceOnUse" color-interpolation-filters="sRGB"><feFlood flood-opacity="0" result="BackgroundImageFix"/><feGaussianBlur in="BackgroundImage" stdDeviation="6.5"/><feComposite in2="SourceAlpha" operator="in" result="effect1_backgroundBlur_34_364"/><feBlend in="SourceGraphic" in2="effect1_backgroundBlur_34_364" result="shape"/></filter><filter id="c" x="39.986" y="40.941" width="59.679" height="63.128" filterUnits="userSpaceOnUse" color-interpolation-filters="sRGB"><feFlood flood-opacity="0" result="BackgroundImageFix"/><feBlend in="SourceGraphic" in2="BackgroundImageFix" result="shape"/><feGaussianBlur stdDeviation="6.5" result="effect1_foregroundBlur_34_364"/></filter><filter id="d" x="44.66" y="41.626" width="77.331" height="80.366" filterUnits="userSpaceOnUse" color-interpolation-filters="sRGB"><feFlood flood-opacity="0" result="BackgroundImageFix"/><feGaussianBlur in="BackgroundImage" stdDeviation="7.5"/><feComposite in2="SourceAlpha" operator="in" result="effect1_backgroundBlur_34_364"/><feBlend in="SourceGraphic" in2="effect1_backgroundBlur_34_364" result="shape"/></filter><filter id="g" x="55.954" y="52.514" width="54.761" height="58.569" filterUnits="userSpaceOnUse" color-interpolation-filters="sRGB"><feFlood flood-opacity="0" result="BackgroundImageFix"/><feGaussianBlur in="BackgroundImage" stdDeviation="7.5"/><feComposite in2="SourceAlpha" operator="in" result="effect1_backgroundBlur_34_364"/><feColorMatrix in="SourceAlpha" values="0 0 0 0 0 0 0 0 0 0 0 0 0 0 0 0 0 0 127 0" result="hardAlpha"/><feOffset dx="5" dy="5"/><feGaussianBlur stdDeviation="5"/><feColorMatrix values="0 0 0 0 1 0 0 0 0 0.447059 0 0 0 0 0.368627 0 0 0 0.5 0"/><feBlend in2="effect1_backgroundBlur_34_364" result="effect2_dropShadow_34_364"/><feBlend in="SourceGraphic" in2="effect2_dropShadow_34_364" result="shape"/></filter></defs></svg>
